; generated by Slic3r Prusa Edition 1.39.1-prusa3d on 2018-04-26 at 14:25:14

; 

; external perimeters extrusion width = 0.45mm
; perimeters extrusion width = 0.45mm
; infill extrusion width = 0.45mm
; solid infill extrusion width = 0.45mm
; top infill extrusion width = 0.40mm
; support material extrusion width = 0.35mm
; first layer extrusion width = 0.42mm

M107
M115 U3.1.1-RC5 ; tell printer latest fw version
M201 X1000 Y1000 Z200 E5000 ; sets maximum accelerations, mm/sec^2
M203 X200 Y200 Z12 E120 ; sets maximum feedrates, mm/sec
M204 S1250 T1250 ; sets acceleration (S) and retract acceleration (T)
M205 X10 Y10 Z0.4 E2.5 ; sets the jerk limits, mm/sec
M205 S0 T0 ; sets the minimum extruding and travel feed rate, mm/sec
M83  ; extruder relative mode
M104 S215 ; set extruder temp
M140 S60 ; set bed temp
M190 S60 ; wait for bed temp
M109 S215 ; wait for extruder temp
G28 W ; home all without mesh bed level
G80 ; mesh bed leveling
G1 Y-3.0 F1000.0 ; go outside print area
G92 E0.0
G1 X60.0 E9.0  F1000.0 ; intro line
G1 X100.0 E12.5  F1000.0 ; intro line
G92 E0.0
M221 S95
M900 K30; Filament gcode
G21 ; set units to millimeters
G90 ; use absolute coordinates
M83 ; use relative distances for extrusion
;BEFORE_LAYER_CHANGE
;0.2


G1 E-0.80000 F2100.00000
G1 Z0.600 F10200.000
;AFTER_LAYER_CHANGE
;0.2
G1 X75.429 Y69.775 F10200.000
G1 Z0.200 F10200.000
G1 E0.80000 F2100.00000
M204 S1000
G1 F1800
G1 X76.170 Y69.101 E0.03139
G1 X76.885 Y68.648 E0.02656
G1 X77.668 Y68.310 E0.02674
G1 X78.488 Y68.101 E0.02656
G1 X79.338 Y68.023 E0.02674
G1 X170.606 Y68.023 E2.86165
G1 X171.625 Y68.121 E0.03210
G1 X172.607 Y68.411 E0.03210
G1 X173.516 Y68.882 E0.03210
G1 X174.320 Y69.517 E0.03210
G1 X174.988 Y70.292 E0.03210
G1 X175.498 Y71.181 E0.03210
G1 X175.830 Y72.149 E0.03210
G1 X175.972 Y73.163 E0.03210
G1 X175.974 Y136.772 E1.99441
G1 X175.804 Y137.954 E0.03746
G1 X175.373 Y139.075 E0.03764
G1 X174.705 Y140.073 E0.03764
G1 X173.832 Y140.897 E0.03764
G1 X173.118 Y141.351 E0.02656
G1 X172.335 Y141.690 E0.02674
G1 X171.509 Y141.900 E0.02674
G1 X170.659 Y141.977 E0.02674
G1 X79.343 Y141.977 E2.86317
G1 X78.129 Y141.825 E0.03836
G1 X76.976 Y141.400 E0.03853
G1 X75.949 Y140.724 E0.03853
G1 X75.103 Y139.832 E0.03853
G1 X74.443 Y138.683 E0.04157
G1 X74.083 Y137.401 E0.04174
G1 X71.774 Y117.780 E0.61944
G1 X71.761 Y92.813 E0.78283
G1 X74.113 Y72.418 E0.64373
G1 X74.385 Y71.460 E0.03121
G1 X74.829 Y70.569 E0.03121
G1 X75.393 Y69.823 E0.02933
G1 F8160
G1 X76.170 Y69.101 E-0.25918
G1 F8160
G1 X76.885 Y68.648 E-0.20707
G1 F8160
G1 X77.668 Y68.310 E-0.20847
G1 F8160
G1 X78.006 Y68.224 E-0.08527
G1 E-0.04000 F2100.00000
G1 Z0.800 F10200.000
G1 X75.441 Y121.078 F10200.000
G1 Z0.200 F10200.000
G1 E0.80000 F2100.00000
G1 F1800
G1 X74.636 Y120.643 E0.02867
G1 X73.743 Y119.761 E0.03936
G1 X73.259 Y118.918 E0.03050
G1 X72.990 Y117.859 E0.03426
G1 X72.990 Y92.378 E0.79893
G1 X73.324 Y91.140 E0.04021
G1 X74.023 Y90.075 E0.03994
G1 X74.933 Y89.343 E0.03663
G1 X75.441 Y89.120 E0.01736
G1 X75.441 Y72.997 E0.50553
G1 X75.599 Y72.172 E0.02635
G1 X75.937 Y71.401 E0.02639
G1 X77.218 Y70.054 E0.05830
G1 X77.894 Y69.705 E0.02383
G1 X78.938 Y69.441 E0.03377
G1 X171.048 Y69.444 E2.88806
G1 X171.846 Y69.605 E0.02550
G1 X172.588 Y69.933 E0.02545
G1 X173.630 Y70.826 E0.04302
G1 X174.263 Y71.810 E0.03669
G1 X174.559 Y72.938 E0.03655
G1 X174.559 Y137.003 E2.00871
G1 X174.401 Y137.828 E0.02635
G1 X174.063 Y138.599 E0.02639
G1 X172.782 Y139.946 E0.05830
G1 X172.106 Y140.295 E0.02383
G1 X171.062 Y140.559 E0.03376
G1 X78.997 Y140.559 E2.88663
G1 X78.172 Y140.401 E0.02635
G1 X77.401 Y140.063 E0.02639
G1 X76.054 Y138.782 E0.05830
G1 X75.705 Y138.106 E0.02383
G1 X75.441 Y137.062 E0.03376
G1 X75.441 Y121.138 E0.49929
G1 X75.818 Y120.850 F10200.000
G1 F1800
G1 X74.879 Y120.354 E0.03328
G1 X74.055 Y119.549 E0.03612
G1 X73.617 Y118.797 E0.02729
G1 X73.367 Y117.834 E0.03118
G1 X73.367 Y92.404 E0.79735
G1 X73.679 Y91.270 E0.03687
G1 X74.319 Y90.310 E0.03619
G1 X75.146 Y89.656 E0.03305
G1 X75.818 Y89.373 E0.02286
G1 X75.818 Y73.016 E0.51286
G1 X75.965 Y72.266 E0.02395
G1 X76.268 Y71.584 E0.02340
G1 X77.421 Y70.373 E0.05243
G1 X78.010 Y70.065 E0.02086
G1 X78.962 Y69.818 E0.03083
G1 X171.029 Y69.821 E2.88668
G1 X171.748 Y69.970 E0.02304
G1 X172.408 Y70.265 E0.02266
G1 X173.362 Y71.092 E0.03960
G1 X173.906 Y71.937 E0.03149
G1 X174.182 Y72.963 E0.03331
G1 X174.182 Y136.984 E2.00734
G1 X174.035 Y137.734 E0.02395
G1 X173.732 Y138.415 E0.02340
G1 X172.579 Y139.627 E0.05243
G1 X171.990 Y139.935 E0.02086
G1 X171.038 Y140.182 E0.03083
G1 X79.016 Y140.182 E2.88528
G1 X78.266 Y140.035 E0.02395
G1 X77.584 Y139.732 E0.02340
G1 X76.373 Y138.579 E0.05243
G1 X76.065 Y137.990 E0.02086
G1 X75.818 Y137.038 E0.03083
G1 X75.818 Y120.910 E0.50569
G1 X76.195 Y120.537 F10200.000
G1 F1800
G1 X75.872 Y120.452 E0.01048
G1 X75.122 Y120.064 E0.02646
G1 X74.337 Y119.297 E0.03442
G1 X73.974 Y118.675 E0.02257
G1 X73.744 Y117.809 E0.02809
G1 X73.744 Y92.430 E0.79573
G1 X74.033 Y91.403 E0.03347
G1 X74.614 Y90.547 E0.03242
G1 X75.355 Y89.970 E0.02947
G1 X76.195 Y89.628 E0.02842
G1 X76.195 Y73.034 E0.52030
G1 X76.318 Y72.400 E0.02025
G1 X76.600 Y71.767 E0.02171
G1 X77.625 Y70.691 E0.04661
G1 X78.129 Y70.423 E0.01790
G1 X78.987 Y70.195 E0.02783
G1 X171.010 Y70.198 E2.88529
G1 X171.613 Y70.323 E0.01933
G1 X172.228 Y70.597 E0.02110
G1 X173.092 Y71.357 E0.03609
G1 X173.572 Y72.114 E0.02809
G1 X173.805 Y72.987 E0.02835
G1 X173.805 Y136.966 E2.00601
G1 X173.682 Y137.600 E0.02025
G1 X173.400 Y138.233 E0.02171
G1 X172.375 Y139.309 E0.04661
G1 X171.871 Y139.577 E0.01790
G1 X171.013 Y139.805 E0.02783
G1 X79.034 Y139.805 E2.88393
G1 X78.400 Y139.682 E0.02025
G1 X77.767 Y139.400 E0.02171
G1 X76.691 Y138.375 E0.04661
G1 X76.423 Y137.871 E0.01790
G1 X76.195 Y137.013 E0.02783
G1 X76.195 Y120.597 E0.51470
G1 X76.572 Y120.234 F10200.000
G1 F1800
G1 X76.022 Y120.105 E0.01772
G1 X75.322 Y119.743 E0.02472
G1 X74.620 Y119.047 E0.03097
G1 X74.331 Y118.551 E0.01801
G1 X74.121 Y117.783 E0.02495
G1 X74.121 Y92.458 E0.79407
G1 X74.386 Y91.538 E0.03001
G1 X74.906 Y90.788 E0.02862
G1 X75.562 Y90.286 E0.02590
G1 X76.572 Y89.886 E0.03406
G1 X76.572 Y73.053 E0.52776
G1 X76.683 Y72.496 E0.01781
G1 X76.930 Y71.952 E0.01871
G1 X77.831 Y71.008 E0.04094
G1 X78.251 Y70.780 E0.01497
G1 X79.013 Y70.572 E0.02477
G1 X170.989 Y70.576 E2.88384
G1 X171.514 Y70.687 E0.01681
G1 X172.045 Y70.928 E0.01829
G1 X172.822 Y71.621 E0.03263
G1 X173.216 Y72.241 E0.02306
G1 X173.428 Y73.013 E0.02510
G1 X173.428 Y136.947 E2.00459
G1 X173.317 Y137.504 E0.01781
G1 X173.070 Y138.048 E0.01871
G1 X172.169 Y138.992 E0.04094
G1 X171.749 Y139.220 E0.01497
G1 X170.987 Y139.428 E0.02477
G1 X79.053 Y139.428 E2.88251
G1 X78.496 Y139.317 E0.01781
G1 X77.952 Y139.070 E0.01871
G1 X77.008 Y138.169 E0.04094
G1 X76.780 Y137.749 E0.01497
G1 X76.572 Y136.987 E0.02477
G1 X76.572 Y120.294 E0.52339
G1 X76.949 Y119.848 F10200.000
G1 F1800
G1 X76.542 Y119.839 E0.01276
G1 X76.172 Y119.758 E0.01188
G1 X75.522 Y119.422 E0.02295
G1 X74.906 Y118.799 E0.02746
G1 X74.687 Y118.425 E0.01360
G1 X74.498 Y117.756 E0.02177
G1 X74.498 Y92.486 E0.79235
G1 X74.738 Y91.677 E0.02646
G1 X75.196 Y91.030 E0.02485
G1 X75.725 Y90.627 E0.02084
G1 X76.649 Y90.261 E0.03117
G1 X76.949 Y90.220 E0.00950
G1 X76.949 Y73.073 E0.53763
G1 X77.048 Y72.595 E0.01531
G1 X77.258 Y72.140 E0.01573
G1 X78.040 Y71.324 E0.03543
G1 X78.376 Y71.137 E0.01207
G1 X79.040 Y70.949 E0.02163
G1 X170.968 Y70.953 E2.88234
G1 X171.411 Y71.050 E0.01424
G1 X171.859 Y71.258 E0.01548
G1 X172.550 Y71.883 E0.02920
G1 X172.862 Y72.371 E0.01818
G1 X173.051 Y73.040 E0.02179
G1 X173.051 Y136.927 E2.00313
G1 X172.952 Y137.405 E0.01531
G1 X172.742 Y137.860 E0.01573
G1 X171.960 Y138.676 E0.03543
G1 X171.624 Y138.863 E0.01207
G1 X170.960 Y139.051 E0.02162
G1 X79.073 Y139.051 E2.88105
G1 X78.595 Y138.952 E0.01531
G1 X78.140 Y138.742 E0.01573
G1 X77.324 Y137.960 E0.03543
G1 X77.137 Y137.624 E0.01207
G1 X76.949 Y136.960 E0.02162
G1 X76.949 Y119.908 E0.53464
G1 X77.326 Y119.470 F10200.000
G1 F1800
G1 X76.602 Y119.466 E0.02271
G1 X76.276 Y119.395 E0.01045
G1 X75.767 Y119.134 E0.01796
G1 X75.216 Y118.584 E0.02440
G1 X75.041 Y118.293 E0.01064
G1 X74.875 Y117.728 E0.01845
G1 X74.875 Y92.513 E0.79063
G1 X75.066 Y91.866 E0.02115
G1 X75.452 Y91.308 E0.02125
G1 X75.890 Y90.968 E0.01740
G1 X76.758 Y90.623 E0.02928
G1 X77.326 Y90.575 E0.01788
G1 X77.326 Y73.094 E0.54811
G1 X77.412 Y72.697 E0.01273
G1 X77.585 Y72.329 E0.01276
G1 X78.251 Y71.637 E0.03010
G1 X78.506 Y71.491 E0.00921
G1 X79.068 Y71.326 E0.01838
G1 X170.946 Y71.330 E2.88076
G1 X171.305 Y71.413 E0.01157
G1 X171.671 Y71.585 E0.01268
G1 X172.276 Y72.143 E0.02580
G1 X172.508 Y72.505 E0.01347
G1 X172.674 Y73.068 E0.01841
G1 X172.674 Y136.906 E2.00160
G1 X172.588 Y137.303 E0.01273
G1 X172.415 Y137.671 E0.01276
G1 X171.749 Y138.363 E0.03010
G1 X171.494 Y138.509 E0.00921
G1 X170.932 Y138.674 E0.01838
G1 X79.094 Y138.674 E2.87952
G1 X78.697 Y138.588 E0.01273
G1 X78.329 Y138.415 E0.01276
G1 X77.637 Y137.749 E0.03010
G1 X77.491 Y137.494 E0.00921
G1 X77.326 Y136.932 E0.01838
G1 X77.326 Y119.530 E0.54564
G1 X77.703 Y119.094 F10200.000
G1 F1800
G1 X76.626 Y119.089 E0.03378
G1 X76.384 Y119.033 E0.00778
G1 X76.010 Y118.844 E0.01316
G1 X75.523 Y118.364 E0.02143
G1 X75.393 Y118.156 E0.00769
G1 X75.252 Y117.699 E0.01500
G1 X75.252 Y92.542 E0.78878
G1 X75.417 Y92.005 E0.01760
G1 X75.709 Y91.585 E0.01605
G1 X76.056 Y91.307 E0.01393
G1 X76.867 Y90.985 E0.02736
G1 X77.260 Y90.961 E0.01234
G1 X77.703 Y91.046 E0.01415
G1 X77.703 Y73.114 E0.56226
G1 X77.762 Y72.838 E0.00882
G1 X77.913 Y72.518 E0.01109
G1 X78.465 Y71.948 E0.02489
G1 X78.641 Y71.844 E0.00640
G1 X79.098 Y71.703 E0.01500
G1 X170.924 Y71.707 E2.87915
G1 X171.162 Y71.762 E0.00767
G1 X171.482 Y71.913 E0.01109
G1 X172.001 Y72.401 E0.02233
G1 X172.156 Y72.642 E0.00898
G1 X172.297 Y73.098 E0.01495
G1 X172.297 Y136.886 E2.00005
G1 X172.238 Y137.162 E0.00882
G1 X172.087 Y137.482 E0.01109
G1 X171.535 Y138.052 E0.02489
G1 X171.359 Y138.156 E0.00640
G1 X170.902 Y138.297 E0.01500
G1 X79.114 Y138.297 E2.87797
G1 X78.838 Y138.238 E0.00882
G1 X78.518 Y138.087 E0.01109
G1 X77.948 Y137.535 E0.02489
G1 X77.844 Y137.359 E0.00640
G1 X77.703 Y136.902 E0.01500
G1 X77.703 Y119.154 E0.55648
G1 X78.080 Y118.540 F10200.000
G1 F1800
G1 X77.710 Y118.697 E0.01261
G1 X77.597 Y118.716 E0.00360
G1 X76.682 Y118.716 E0.02869
G1 X76.530 Y118.685 E0.00484
G1 X76.207 Y118.521 E0.01136
G1 X75.827 Y118.141 E0.01687
G1 X75.742 Y118.011 E0.00484
G1 X75.629 Y117.667 E0.01136
G1 X75.629 Y92.570 E0.78691
G1 X75.743 Y92.196 E0.01225
G1 X76.001 Y91.825 E0.01417
G1 X76.263 Y91.624 E0.01035
G1 X76.971 Y91.349 E0.02383
G1 X77.246 Y91.338 E0.00863
G1 X77.695 Y91.436 E0.01440
G1 X78.080 Y91.630 E0.01352
G1 X78.080 Y73.133 E0.57996
G1 X78.112 Y72.979 E0.00492
G1 X78.240 Y72.709 E0.00938
G1 X78.684 Y72.255 E0.01988
G1 X78.783 Y72.194 E0.00366
G1 X79.129 Y72.080 E0.01144
G1 X170.902 Y72.084 E2.87746
G1 X171.019 Y72.111 E0.00377
G1 X171.292 Y72.240 E0.00947
G1 X171.723 Y72.657 E0.01880
G1 X171.807 Y72.785 E0.00479
G1 X171.920 Y73.129 E0.01136
G1 X171.920 Y136.867 E1.99846
G1 X171.888 Y137.021 E0.00492
G1 X171.760 Y137.291 E0.00938
G1 X171.316 Y137.745 E0.01988
G1 X171.217 Y137.806 E0.00366
G1 X170.871 Y137.920 E0.01144
G1 X79.133 Y137.920 E2.87638
G1 X78.979 Y137.888 E0.00492
G1 X78.709 Y137.760 E0.00938
G1 X78.255 Y137.316 E0.01988
G1 X78.194 Y137.217 E0.00366
G1 X78.080 Y136.871 E0.01144
G1 X78.080 Y118.600 E0.57288
G1 F8160
G1 X77.710 Y118.697 E-0.09358
G1 F8160
G1 X77.597 Y118.716 E-0.02810
G1 F8160
G1 X76.682 Y118.716 E-0.22374
G1 F8160
G1 X76.530 Y118.685 E-0.03775
G1 F8160
G1 X76.207 Y118.521 E-0.08859
G1 F8160
G1 X75.827 Y118.141 E-0.13153
G1 F8160
G1 X75.742 Y118.011 E-0.03775
G1 F8160
G1 X75.629 Y117.667 E-0.08859
G1 F8160
G1 X75.629 Y117.543 E-0.03037
G1 E-0.04000 F2100.00000
G1 Z0.800 F10200.000
G1 X78.457 Y117.599 F10200.000
G1 Z0.200 F10200.000
G1 E0.80000 F2100.00000
G1 F1800
G1 X77.826 Y118.230 E0.02799
G1 X77.576 Y118.339 E0.00856
G1 X76.667 Y118.333 E0.02849
G1 X76.449 Y118.230 E0.00757
G1 X76.106 Y117.886 E0.01522
G1 X76.006 Y117.632 E0.00856
G1 X76.006 Y92.597 E0.78495
G1 X76.070 Y92.387 E0.00689
G1 X76.294 Y92.065 E0.01229
G1 X76.427 Y91.964 E0.00525
G1 X77.028 Y91.723 E0.02030
G1 X77.194 Y91.713 E0.00521
G1 X77.580 Y91.797 E0.01240
G1 X77.726 Y91.882 E0.00530
G1 X78.457 Y92.617 E0.03251
G1 X78.457 Y73.150 E0.61036
G1 X78.567 Y72.900 E0.00856
G1 X78.937 Y72.539 E0.01622
G1 X79.164 Y72.457 E0.00757
G1 X170.850 Y72.457 E2.87473
G1 X171.100 Y72.567 E0.00856
G1 X171.461 Y72.937 E0.01622
G1 X171.543 Y73.164 E0.00757
G1 X171.543 Y136.850 E1.99681
G1 X171.433 Y137.100 E0.00856
G1 X171.063 Y137.461 E0.01622
G1 X170.836 Y137.543 E0.00757
G1 X79.118 Y137.536 E2.87573
G1 X78.900 Y137.433 E0.00757
G1 X78.557 Y137.090 E0.01522
G1 X78.457 Y136.836 E0.00856
G1 X78.457 Y117.659 E0.60128
G1 F8160
G1 X77.826 Y118.230 E-0.20811
G1 F8160
G1 X77.576 Y118.339 E-0.06678
G1 F8160
G1 X76.667 Y118.333 E-0.22216
G1 F8160
G1 X76.449 Y118.230 E-0.05905
G1 F8160
G1 X76.106 Y117.886 E-0.11866
G1 F8160
G1 X76.006 Y117.632 E-0.06678
G1 F8160
G1 X76.006 Y117.557 E-0.01845
G1 E-0.04000 F2100.00000
G1 Z0.800 F10200.000
G1 X78.834 Y116.526 F10200.000
G1 Z0.200 F10200.000
G1 E0.80000 F2100.00000
G1 F1800
G1 X78.235 Y117.125 E0.02657
G1 X78.186 Y117.152 E0.00175
G1 X77.892 Y117.210 E0.00940
G1 X77.892 Y117.590 E0.01191
G1 X77.863 Y117.659 E0.00235
G1 X77.589 Y117.933 E0.01215
G1 X77.520 Y117.962 E0.00235
G1 X76.755 Y117.962 E0.02398
G1 X76.686 Y117.933 E0.00235
G1 X76.412 Y117.659 E0.01215
G1 X76.383 Y117.590 E0.00235
G1 X76.383 Y92.625 E0.78276
G1 X76.399 Y92.572 E0.00175
G1 X76.558 Y92.335 E0.00893
G1 X76.601 Y92.299 E0.00175
G1 X77.097 Y92.094 E0.01683
G1 X77.153 Y92.088 E0.00175
G1 X77.432 Y92.144 E0.00893
G1 X77.481 Y92.170 E0.00175
G1 X78.834 Y93.530 E0.06016
G1 X78.834 Y73.206 E0.63724
G1 X78.863 Y73.137 E0.00235
G1 X79.137 Y72.863 E0.01215
G1 X79.206 Y72.834 E0.00235
G1 X170.794 Y72.834 E2.87166
G1 X170.863 Y72.863 E0.00235
G1 X171.137 Y73.137 E0.01215
G1 X171.166 Y73.206 E0.00235
G1 X171.166 Y136.794 E1.99374
G1 X171.137 Y136.863 E0.00235
G1 X170.863 Y137.137 E0.01215
G1 X170.794 Y137.166 E0.00235
G1 X79.206 Y137.166 E2.87166
G1 X79.137 Y137.137 E0.00235
G1 X78.863 Y136.863 E0.01215
G1 X78.834 Y136.794 E0.00235
G1 X78.834 Y116.586 E0.63359
G1 F8160
G1 X78.235 Y117.125 E-0.19706
G1 F8160
G1 X78.186 Y117.152 E-0.01368
G1 F8160
G1 X77.892 Y117.210 E-0.07332
G1 F8160
G1 X77.892 Y117.590 E-0.09286
G1 F8160
G1 X77.863 Y117.659 E-0.01834
G1 F8160
G1 X77.589 Y117.933 E-0.09471
G1 F8160
G1 X77.520 Y117.962 E-0.01834
G1 F8160
G1 X76.755 Y117.962 E-0.18695
G1 F8160
G1 X76.686 Y117.933 E-0.01834
G1 F8160
G1 X76.552 Y117.799 E-0.04641
G1 E-0.04000 F2100.00000
G1 Z0.800 F10200.000
G1 X79.211 Y115.616 F10200.000
G1 Z0.200 F10200.000
G1 E0.80000 F2100.00000
G1 F1800
G1 X78.029 Y116.799 E0.05244
G1 X77.917 Y116.821 E0.00359
G1 X77.515 Y116.654 E0.01364
G1 X77.515 Y117.475 E0.02571
G1 X77.404 Y117.585 E0.00490
G1 X76.871 Y117.585 E0.01673
G1 X76.760 Y117.475 E0.00490
G1 X76.760 Y92.710 E0.77647
G1 X76.824 Y92.615 E0.00359
G1 X77.162 Y92.475 E0.01149
G1 X77.275 Y92.497 E0.00359
G1 X78.189 Y93.412 E0.04055
G1 X78.256 Y93.548 E0.00475
G1 X78.280 Y94.145 E0.01875
G1 X78.671 Y93.983 E0.01327
G1 X78.783 Y94.006 E0.00359
G1 X79.211 Y94.434 E0.01900
G1 X79.211 Y73.322 E0.66196
G1 X79.322 Y73.211 E0.00490
G1 X170.678 Y73.211 E2.86441
G1 X170.789 Y73.322 E0.00490
G1 X170.789 Y136.678 E1.98649
G1 X170.678 Y136.789 E0.00490
G1 X79.322 Y136.789 E2.86441
G1 X79.211 Y136.678 E0.00490
G1 X79.211 Y115.676 E0.65851
G1 F8160
G1 X78.029 Y116.799 E-0.39867
G1 F8160
G1 X77.917 Y116.821 E-0.02797
G1 F8160
G1 X77.515 Y116.654 E-0.10636
G1 F8160
G1 X77.515 Y117.475 E-0.20051
G1 F8160
G1 X77.438 Y117.551 E-0.02650
G1 E-0.04000 F2100.00000
G1 Z0.800 F10200.000
G1 X87.319 Y111.111 F10200.000
G1 Z0.200 F10200.000
G1 E0.80000 F2100.00000
G1 F1800
G1 X87.319 Y98.889 E0.38324
G1 X96.511 Y98.889 E0.28823
G1 X96.511 Y111.111 E0.38324
G1 X87.379 Y111.111 E0.28635
