; generated by Slic3r Prusa Edition 1.39.1-prusa3d on 2018-04-26 at 15:41:34

; 

; external perimeters extrusion width = 0.45mm
; perimeters extrusion width = 0.45mm
; infill extrusion width = 0.45mm
; solid infill extrusion width = 0.45mm
; top infill extrusion width = 0.40mm
; first layer extrusion width = 0.42mm

M107
M115 U3.1.0 ; tell printer latest fw version
M83  ; extruder relative mode
M104 S215 ; set extruder temp
M140 S60 ; set bed temp
M190 S60 ; wait for bed temp
M109 S215 ; wait for extruder temp
G28 W ; home all without mesh bed level
G80 ; mesh bed leveling
G1 Y-3.0 F1000.0 ; go outside print area
G92 E0.0
G1 X60.0 E9.0  F1000.0 ; intro line
G1 X100.0 E12.5  F1000.0 ; intro line
G92 E0.0
M900 K30; Filament gcode
G21 ; set units to millimeters
G90 ; use absolute coordinates
M83 ; use relative distances for extrusion
;BEFORE_LAYER_CHANGE
;0.2


G1 E-0.80000 F2100.00000
G1 Z0.600 F7200.000
;AFTER_LAYER_CHANGE
;0.2
G1 X79.863 Y87.820 F7200.000
G1 Z0.200 F7200.000
G1 E0.80000 F2100.00000
M204 S1000
G1 F1800
G1 X80.994 Y87.623 E0.03598
G1 X169.005 Y87.623 E2.75952
G1 X169.650 Y87.686 E0.02032
G1 X170.271 Y87.871 E0.02032
G1 X170.845 Y88.172 E0.02032
G1 X171.352 Y88.576 E0.02032
G1 X171.771 Y89.070 E0.02032
G1 X172.087 Y89.631 E0.02018
G1 X172.292 Y90.246 E0.02032
G1 X172.375 Y90.889 E0.02032
G1 X172.369 Y119.240 E0.88893
G1 X172.159 Y120.195 E0.03064
G1 X171.687 Y121.046 E0.03050
G1 X170.993 Y121.727 E0.03050
G1 X170.133 Y122.181 E0.03050
G1 X169.006 Y122.377 E0.03584
G1 X80.927 Y122.376 E2.76166
G1 X79.929 Y122.203 E0.03177
G1 X79.024 Y121.738 E0.03191
G1 X78.300 Y121.029 E0.03177
G1 X77.819 Y120.133 E0.03191
G1 X77.623 Y119.020 E0.03542
G1 X77.630 Y90.787 E0.88524
G1 X77.832 Y89.831 E0.03064
G1 X78.302 Y88.969 E0.03078
G1 X78.996 Y88.281 E0.03064
G1 X79.810 Y87.848 E0.02890
G1 F5760
G1 X80.994 Y87.623 E-0.41727
G1 F5760
G1 X81.983 Y87.623 E-0.34273
G1 E-0.04000 F2100.00000
G1 Z0.800 F7200.000
G1 X79.572 Y88.975 F7200.000
G1 Z0.200 F7200.000
G1 E0.80000 F2100.00000
G1 F1800
G1 X80.237 Y88.634 E0.02343
G1 X80.676 Y88.549 E0.01405
G1 X169.368 Y88.553 E2.78086
G1 X169.811 Y88.650 E0.01424
G1 X170.259 Y88.858 E0.01548
G1 X170.950 Y89.483 E0.02920
G1 X171.262 Y89.971 E0.01818
G1 X171.451 Y90.640 E0.02179
G1 X171.451 Y119.326 E0.89943
G1 X171.327 Y119.872 E0.01755
G1 X170.986 Y120.480 E0.02186
G1 X170.428 Y121.025 E0.02444
G1 X169.763 Y121.366 E0.02343
G1 X169.324 Y121.451 E0.01404
G1 X80.674 Y121.451 E2.77955
G1 X80.128 Y121.327 E0.01755
G1 X79.520 Y120.986 E0.02186
G1 X78.975 Y120.428 E0.02444
G1 X78.634 Y119.763 E0.02343
G1 X78.549 Y119.324 E0.01404
G1 X78.549 Y90.674 E0.89829
G1 X78.673 Y90.128 E0.01755
G1 X79.014 Y89.520 E0.02186
G1 X79.529 Y89.017 E0.02256
G1 X79.792 Y89.287 F7200.000
G1 F1800
G1 X80.379 Y88.984 E0.02072
G1 X80.693 Y88.926 E0.00999
G1 X169.346 Y88.930 E2.77965
G1 X169.705 Y89.013 E0.01157
G1 X170.071 Y89.185 E0.01268
G1 X170.676 Y89.743 E0.02580
G1 X170.908 Y90.105 E0.01347
G1 X171.074 Y90.668 E0.01841
G1 X171.074 Y119.306 E0.89791
G1 X170.982 Y119.716 E0.01318
G1 X170.702 Y120.231 E0.01839
G1 X170.187 Y120.734 E0.02257
G1 X169.621 Y121.016 E0.01984
G1 X169.307 Y121.074 E0.00999
G1 X80.694 Y121.074 E2.77840
G1 X80.284 Y120.982 E0.01318
G1 X79.769 Y120.702 E0.01839
G1 X79.266 Y120.187 E0.02257
G1 X78.984 Y119.621 E0.01984
G1 X78.926 Y119.307 E0.00999
G1 X78.926 Y90.694 E0.89714
G1 X79.018 Y90.284 E0.01318
G1 X79.298 Y89.769 E0.01839
G1 X79.749 Y89.329 E0.01976
G1 X80.010 Y89.590 F7200.000
G1 F1800
G1 X80.479 Y89.348 E0.01654
G1 X80.712 Y89.303 E0.00743
G1 X169.324 Y89.307 E2.77837
G1 X169.562 Y89.362 E0.00767
G1 X169.882 Y89.513 E0.01109
G1 X170.401 Y90.001 E0.02233
G1 X170.556 Y90.242 E0.00898
G1 X170.697 Y90.698 E0.01495
G1 X170.697 Y119.286 E0.89637
G1 X170.636 Y119.564 E0.00892
G1 X170.414 Y119.986 E0.01496
G1 X169.987 Y120.413 E0.01892
G1 X169.521 Y120.652 E0.01642
G1 X169.288 Y120.697 E0.00743
G1 X80.714 Y120.697 E2.77718
G1 X80.436 Y120.636 E0.00892
G1 X80.014 Y120.414 E0.01496
G1 X79.587 Y119.987 E0.01892
G1 X79.348 Y119.521 E0.01642
G1 X79.303 Y119.288 E0.00743
G1 X79.303 Y90.714 E0.89593
G1 X79.364 Y90.436 E0.00892
G1 X79.586 Y90.014 E0.01496
G1 X79.968 Y89.632 E0.01692
G1 X80.582 Y89.712 F7200.000
G1 F1800
G1 X80.733 Y89.680 E0.00484
G1 X169.302 Y89.684 E2.77702
G1 X169.419 Y89.711 E0.00377
G1 X169.692 Y89.840 E0.00947
G1 X170.123 Y90.257 E0.01880
G1 X170.207 Y90.385 E0.00479
G1 X170.320 Y90.729 E0.01136
G1 X170.320 Y119.267 E0.89479
G1 X170.288 Y119.418 E0.00484
G1 X170.125 Y119.742 E0.01136
G1 X169.742 Y120.125 E0.01697
G1 X169.418 Y120.288 E0.01136
G1 X169.267 Y120.320 E0.00484
G1 X80.733 Y120.320 E2.77594
G1 X80.582 Y120.288 E0.00484
G1 X80.258 Y120.125 E0.01136
G1 X79.875 Y119.742 E0.01697
G1 X79.712 Y119.418 E0.01136
G1 X79.680 Y119.267 E0.00484
G1 X79.680 Y90.733 E0.89468
G1 X79.712 Y90.582 E0.00484
G1 X79.875 Y90.258 E0.01136
G1 X80.258 Y89.875 E0.01697
G1 X80.528 Y89.739 E0.00948
G1 X80.688 Y90.078 F7200.000
G1 F1800
G1 X80.750 Y90.057 E0.00205
G1 X169.282 Y90.064 E2.77584
G1 X169.500 Y90.167 E0.00757
G1 X169.843 Y90.510 E0.01522
G1 X169.943 Y90.764 E0.00856
G1 X169.936 Y119.282 E0.89414
G1 X169.833 Y119.500 E0.00757
G1 X169.500 Y119.833 E0.01477
G1 X169.250 Y119.943 E0.00856
G1 X80.718 Y119.936 E2.77584
G1 X80.500 Y119.833 E0.00757
G1 X80.167 Y119.500 E0.01477
G1 X80.057 Y119.250 E0.00856
G1 X80.057 Y90.750 E0.89358
G1 X80.167 Y90.500 E0.00856
G1 X80.500 Y90.167 E0.01477
G1 X80.634 Y90.104 E0.00464
G1 X80.737 Y90.463 F7200.000
G1 F1800
G1 X80.806 Y90.434 E0.00235
G1 X169.194 Y90.434 E2.77132
G1 X169.263 Y90.463 E0.00235
G1 X169.537 Y90.737 E0.01215
G1 X169.566 Y90.806 E0.00235
G1 X169.566 Y119.194 E0.89007
G1 X169.537 Y119.263 E0.00235
G1 X169.263 Y119.537 E0.01215
G1 X169.194 Y119.566 E0.00235
G1 X80.806 Y119.566 E2.77132
G1 X80.737 Y119.537 E0.00235
G1 X80.463 Y119.263 E0.01215
G1 X80.434 Y119.194 E0.00235
G1 X80.434 Y90.806 E0.89007
G1 X80.463 Y90.737 E0.00235
G1 X80.695 Y90.506 E0.01027
G1 X80.922 Y90.811 F7200.000
G1 F1800
G1 X169.078 Y90.811 E2.76408
G1 X169.189 Y90.922 E0.00490
G1 X169.189 Y119.078 E0.88282
G1 X169.078 Y119.189 E0.00490
G1 X80.922 Y119.189 E2.76408
G1 X80.811 Y119.078 E0.00490
G1 X80.811 Y90.922 E0.88282
G1 X80.879 Y90.854 E0.00302
G1 X81.210 Y91.210 F7200.000
G1 F1800
G1 X168.790 Y91.210 E2.74601
G1 X168.790 Y118.790 E0.86475
G1 X81.210 Y118.790 E2.74601
G1 X81.210 Y91.270 E0.86287
G1 X81.608 Y91.251 F7200.000
G1 X81.587 Y91.587 F7200.000
G1 F1800
G1 X168.413 Y91.587 E2.72236
G1 X168.413 Y118.413 E0.84111
G1 X81.587 Y118.413 E2.72236
G1 X81.587 Y91.647 E0.83922
G1 F5760
G1 X83.781 Y91.646 E-0.76000
G1 E-0.04000 F2100.00000
G1 Z0.800 F7200.000
G1 X82.464 Y118.300 F7200.000
G1 Z0.200 F7200.000
G1 E0.80000 F2100.00000
G1 F1800
G1 X81.870 Y117.706 E0.02640
G1 X81.870 Y117.171 E0.01679
G1 X82.829 Y118.130 E0.04260
G1 X83.363 Y118.130 E0.01679
G1 X81.870 Y116.637 E0.06634
G1 X81.870 Y116.103 E0.01679
G1 X83.897 Y118.130 E0.09007
G1 X84.432 Y118.130 E0.01679
G1 X81.870 Y115.568 E0.11381
G1 X81.870 Y115.034 E0.01679
G1 X84.966 Y118.130 E0.13755
G1 X85.500 Y118.130 E0.01679
G1 X81.870 Y114.500 E0.16129
G1 X81.870 Y113.965 E0.01679
G1 X86.035 Y118.130 E0.18503
G1 X86.569 Y118.130 E0.01679
G1 X81.870 Y113.431 E0.20877
G1 X81.870 Y112.897 E0.01679
G1 X87.103 Y118.130 E0.23251
G1 X87.637 Y118.130 E0.01679
G1 X81.870 Y112.363 E0.25625
G1 X81.870 Y111.828 E0.01679
G1 X88.172 Y118.130 E0.27998
G1 X88.706 Y118.130 E0.01679
G1 X81.870 Y111.294 E0.30372
G1 X81.870 Y110.760 E0.01679
G1 X89.240 Y118.130 E0.32746
G1 X89.775 Y118.130 E0.01679
G1 X81.870 Y110.225 E0.35120
G1 X81.870 Y109.691 E0.01679
G1 X90.309 Y118.130 E0.37494
G1 X90.843 Y118.130 E0.01679
G1 X81.870 Y109.157 E0.39868
G1 X81.870 Y108.622 E0.01679
G1 X91.378 Y118.130 E0.42242
G1 X91.912 Y118.130 E0.01679
G1 X81.870 Y108.088 E0.44615
G1 X81.870 Y107.554 E0.01679
G1 X92.446 Y118.130 E0.46989
G1 X92.981 Y118.130 E0.01679
G1 X81.870 Y107.019 E0.49363
G1 X81.870 Y106.485 E0.01679
G1 X93.515 Y118.130 E0.51737
G1 X94.049 Y118.130 E0.01679
G1 X81.870 Y105.951 E0.54111
G1 X81.870 Y105.416 E0.01679
G1 X94.584 Y118.130 E0.56485
G1 X95.118 Y118.130 E0.01679
G1 X81.870 Y104.882 E0.58859
G1 X81.870 Y104.348 E0.01679
G1 X95.652 Y118.130 E0.61233
G1 X96.186 Y118.130 E0.01679
G1 X81.870 Y103.814 E0.63606
G1 X81.870 Y103.279 E0.01679
G1 X96.721 Y118.130 E0.65980
G1 X97.255 Y118.130 E0.01679
G1 X81.870 Y102.745 E0.68354
G1 X81.870 Y102.211 E0.01679
G1 X97.789 Y118.130 E0.70728
G1 X98.324 Y118.130 E0.01679
G1 X81.870 Y101.676 E0.73102
G1 X81.870 Y101.142 E0.01679
G1 X98.858 Y118.130 E0.75476
G1 X99.392 Y118.130 E0.01679
G1 X81.870 Y100.608 E0.77850
G1 X81.870 Y100.073 E0.01679
G1 X99.927 Y118.130 E0.80224
G1 X100.461 Y118.130 E0.01679
G1 X81.870 Y99.539 E0.82597
G1 X81.870 Y99.005 E0.01679
G1 X100.995 Y118.130 E0.84971
G1 X101.530 Y118.130 E0.01679
G1 X81.870 Y98.470 E0.87345
G1 X81.870 Y97.936 E0.01679
G1 X102.064 Y118.130 E0.89719
G1 X102.598 Y118.130 E0.01679
G1 X81.870 Y97.402 E0.92093
G1 X81.870 Y96.867 E0.01679
G1 X103.133 Y118.130 E0.94467
G1 X103.667 Y118.130 E0.01679
G1 X81.870 Y96.333 E0.96841
G1 X81.870 Y95.799 E0.01679
G1 X104.201 Y118.130 E0.99215
G1 X104.736 Y118.130 E0.01679
G1 X81.870 Y95.264 E1.01588
G1 X81.870 Y94.730 E0.01679
G1 X105.270 Y118.130 E1.03962
G1 X105.804 Y118.130 E0.01679
G1 X81.870 Y94.196 E1.06336
G1 X81.870 Y93.662 E0.01679
G1 X106.338 Y118.130 E1.08710
G1 X106.873 Y118.130 E0.01679
G1 X81.870 Y93.127 E1.11084
G1 X81.870 Y92.593 E0.01679
G1 X107.407 Y118.130 E1.13458
G1 X107.941 Y118.130 E0.01679
G1 X81.870 Y92.059 E1.15832
G1 X81.870 Y91.870 E0.00593
G1 X82.215 Y91.870 E0.01086
G1 X108.476 Y118.130 E1.16670
G1 X109.010 Y118.130 E0.01679
G1 X82.750 Y91.870 E1.16670
G1 X83.284 Y91.870 E0.01679
G1 X109.544 Y118.130 E1.16670
G1 X110.079 Y118.130 E0.01679
G1 X83.818 Y91.870 E1.16670
G1 X84.353 Y91.870 E0.01679
G1 X110.613 Y118.130 E1.16670
G1 X111.147 Y118.130 E0.01679
G1 X84.887 Y91.870 E1.16670
G1 X85.421 Y91.870 E0.01679
G1 X111.682 Y118.130 E1.16670
G1 X112.216 Y118.130 E0.01679
G1 X85.956 Y91.870 E1.16670
G1 X86.490 Y91.870 E0.01679
G1 X112.750 Y118.130 E1.16670
G1 X113.285 Y118.130 E0.01679
G1 X87.024 Y91.870 E1.16670
G1 X87.559 Y91.870 E0.01679
G1 X113.819 Y118.130 E1.16670
G1 X114.353 Y118.130 E0.01679
G1 X88.093 Y91.870 E1.16670
G1 X88.627 Y91.870 E0.01679
G1 X114.887 Y118.130 E1.16670
G1 X115.422 Y118.130 E0.01679
G1 X89.162 Y91.870 E1.16670
G1 X89.696 Y91.870 E0.01679
G1 X115.956 Y118.130 E1.16670
G1 X116.490 Y118.130 E0.01679
G1 X90.230 Y91.870 E1.16670
G1 X90.764 Y91.870 E0.01679
G1 X117.025 Y118.130 E1.16670
G1 X117.559 Y118.130 E0.01679
G1 X91.299 Y91.870 E1.16670
G1 X91.833 Y91.870 E0.01679
G1 X118.093 Y118.130 E1.16670
G1 X118.628 Y118.130 E0.01679
G1 X92.367 Y91.870 E1.16670
G1 X92.902 Y91.870 E0.01679
G1 X119.162 Y118.130 E1.16670
G1 X119.696 Y118.130 E0.01679
G1 X93.436 Y91.870 E1.16670
G1 X93.970 Y91.870 E0.01679
G1 X120.231 Y118.130 E1.16670
G1 X120.765 Y118.130 E0.01679
G1 X94.505 Y91.870 E1.16670
G1 X95.039 Y91.870 E0.01679
G1 X121.299 Y118.130 E1.16670
G1 X121.834 Y118.130 E0.01679
G1 X95.573 Y91.870 E1.16670
G1 X96.108 Y91.870 E0.01679
G1 X122.368 Y118.130 E1.16670
G1 X122.902 Y118.130 E0.01679
G1 X96.642 Y91.870 E1.16670
G1 X97.176 Y91.870 E0.01679
G1 X123.436 Y118.130 E1.16670
G1 X123.971 Y118.130 E0.01679
G1 X97.711 Y91.870 E1.16670
G1 X98.245 Y91.870 E0.01679
G1 X124.505 Y118.130 E1.16670
G1 X125.039 Y118.130 E0.01679
G1 X98.779 Y91.870 E1.16670
G1 X99.313 Y91.870 E0.01679
G1 X125.574 Y118.130 E1.16670
G1 X126.108 Y118.130 E0.01679
G1 X99.848 Y91.870 E1.16670
G1 X100.382 Y91.870 E0.01679
G1 X126.642 Y118.130 E1.16670
G1 X127.177 Y118.130 E0.01679
G1 X100.916 Y91.870 E1.16670
G1 X101.451 Y91.870 E0.01679
G1 X127.711 Y118.130 E1.16670
G1 X128.245 Y118.130 E0.01679
G1 X101.985 Y91.870 E1.16670
G1 X102.519 Y91.870 E0.01679
G1 X128.780 Y118.130 E1.16670
G1 X129.314 Y118.130 E0.01679
G1 X103.054 Y91.870 E1.16670
G1 X103.588 Y91.870 E0.01679
G1 X129.848 Y118.130 E1.16670
G1 X130.383 Y118.130 E0.01679
G1 X104.122 Y91.870 E1.16670
G1 X104.657 Y91.870 E0.01679
G1 X130.917 Y118.130 E1.16670
G1 X131.451 Y118.130 E0.01679
G1 X105.191 Y91.870 E1.16670
G1 X105.725 Y91.870 E0.01679
G1 X131.986 Y118.130 E1.16670
G1 X132.520 Y118.130 E0.01679
G1 X106.260 Y91.870 E1.16670
G1 X106.794 Y91.870 E0.01679
G1 X133.054 Y118.130 E1.16670
G1 X133.588 Y118.130 E0.01679
G1 X107.328 Y91.870 E1.16670
G1 X107.863 Y91.870 E0.01679
G1 X134.123 Y118.130 E1.16670
G1 X134.657 Y118.130 E0.01679
G1 X108.397 Y91.870 E1.16670
G1 X108.931 Y91.870 E0.01679
G1 X135.191 Y118.130 E1.16670
G1 X135.726 Y118.130 E0.01679
G1 X109.465 Y91.870 E1.16670
G1 X110.000 Y91.870 E0.01679
G1 X136.260 Y118.130 E1.16670
G1 X136.794 Y118.130 E0.01679
G1 X110.534 Y91.870 E1.16670
G1 X111.068 Y91.870 E0.01679
G1 X137.329 Y118.130 E1.16670
G1 X137.863 Y118.130 E0.01679
G1 X111.603 Y91.870 E1.16670
G1 X112.137 Y91.870 E0.01679
G1 X138.397 Y118.130 E1.16670
G1 X138.932 Y118.130 E0.01679
G1 X112.671 Y91.870 E1.16670
G1 X113.206 Y91.870 E0.01679
G1 X139.466 Y118.130 E1.16670
G1 X140.000 Y118.130 E0.01679
G1 X113.740 Y91.870 E1.16670
G1 X114.274 Y91.870 E0.01679
G1 X140.535 Y118.130 E1.16670
G1 X141.069 Y118.130 E0.01679
G1 X114.809 Y91.870 E1.16670
G1 X115.343 Y91.870 E0.01679
G1 X141.603 Y118.130 E1.16670
G1 X142.137 Y118.130 E0.01679
G1 X115.877 Y91.870 E1.16670
G1 X116.412 Y91.870 E0.01679
G1 X142.672 Y118.130 E1.16670
G1 X143.206 Y118.130 E0.01679
G1 X116.946 Y91.870 E1.16670
G1 X117.480 Y91.870 E0.01679
G1 X143.740 Y118.130 E1.16670
G1 X144.275 Y118.130 E0.01679
G1 X118.014 Y91.870 E1.16670
G1 X118.549 Y91.870 E0.01679
G1 X144.809 Y118.130 E1.16670
G1 X145.343 Y118.130 E0.01679
G1 X119.083 Y91.870 E1.16670
G1 X119.617 Y91.870 E0.01679
G1 X145.878 Y118.130 E1.16670
G1 X146.412 Y118.130 E0.01679
G1 X120.152 Y91.870 E1.16670
G1 X120.686 Y91.870 E0.01679
G1 X146.946 Y118.130 E1.16670
G1 X147.481 Y118.130 E0.01679
G1 X121.220 Y91.870 E1.16670
G1 X121.755 Y91.870 E0.01679
G1 X148.015 Y118.130 E1.16670
G1 X148.549 Y118.130 E0.01679
G1 X122.289 Y91.870 E1.16670
G1 X122.823 Y91.870 E0.01679
G1 X149.084 Y118.130 E1.16670
G1 X149.618 Y118.130 E0.01679
G1 X123.358 Y91.870 E1.16670
G1 X123.892 Y91.870 E0.01679
G1 X150.152 Y118.130 E1.16670
G1 X150.687 Y118.130 E0.01679
G1 X124.426 Y91.870 E1.16670
G1 X124.961 Y91.870 E0.01679
G1 X151.221 Y118.130 E1.16670
G1 X151.755 Y118.130 E0.01679
G1 X125.495 Y91.870 E1.16670
G1 X126.029 Y91.870 E0.01679
G1 X152.289 Y118.130 E1.16670
G1 X152.824 Y118.130 E0.01679
G1 X126.563 Y91.870 E1.16670
G1 X127.098 Y91.870 E0.01679
G1 X153.358 Y118.130 E1.16670
G1 X153.892 Y118.130 E0.01679
G1 X127.632 Y91.870 E1.16670
G1 X128.166 Y91.870 E0.01679
G1 X154.427 Y118.130 E1.16670
G1 X154.961 Y118.130 E0.01679
G1 X128.701 Y91.870 E1.16670
G1 X129.235 Y91.870 E0.01679
G1 X155.495 Y118.130 E1.16670
G1 X156.030 Y118.130 E0.01679
G1 X129.769 Y91.870 E1.16670
G1 X130.304 Y91.870 E0.01679
G1 X156.564 Y118.130 E1.16670
G1 X157.098 Y118.130 E0.01679
G1 X130.838 Y91.870 E1.16670
G1 X131.372 Y91.870 E0.01679
G1 X157.633 Y118.130 E1.16670
G1 X158.167 Y118.130 E0.01679
G1 X131.907 Y91.870 E1.16670
G1 X132.441 Y91.870 E0.01679
G1 X158.701 Y118.130 E1.16670
G1 X159.236 Y118.130 E0.01679
G1 X132.975 Y91.870 E1.16670
G1 X133.510 Y91.870 E0.01679
G1 X159.770 Y118.130 E1.16670
G1 X160.304 Y118.130 E0.01679
G1 X134.044 Y91.870 E1.16670
G1 X134.578 Y91.870 E0.01679
G1 X160.838 Y118.130 E1.16670
G1 X161.373 Y118.130 E0.01679
G1 X135.113 Y91.870 E1.16670
G1 X135.647 Y91.870 E0.01679
G1 X161.907 Y118.130 E1.16670
G1 X162.441 Y118.130 E0.01679
G1 X136.181 Y91.870 E1.16670
G1 X136.715 Y91.870 E0.01679
G1 X162.976 Y118.130 E1.16670
G1 X163.510 Y118.130 E0.01679
G1 X137.250 Y91.870 E1.16670
G1 X137.784 Y91.870 E0.01679
G1 X164.044 Y118.130 E1.16670
G1 X164.579 Y118.130 E0.01679
G1 X138.318 Y91.870 E1.16670
G1 X138.853 Y91.870 E0.01679
G1 X165.113 Y118.130 E1.16670
G1 X165.647 Y118.130 E0.01679
G1 X139.387 Y91.870 E1.16670
G1 X139.921 Y91.870 E0.01679
G1 X166.182 Y118.130 E1.16670
G1 X166.716 Y118.130 E0.01679
